X: 30699
T: Orange Tree, The
R: reel
M: 4/4
K: Adorian
E|A2AB cedc|B2G2 G2cB|A2AG FGAB|G2E2 E3G|
FGFE D2D/E/F|GAGF E2e=f|edcB EBdB|c2A2 A4|
EAcA EAcA|EABA EABA|DFAF dF AF/A/|G2EE/D/ E4|
Acec EAce|GBeB D/E/GBe|DFAd e/f/g fe/A/|e2e=f edcB|
A2AB cedc|B2G2 G2e=f|edcB EBde|c2AA/G/ A3||

